!!!!SEGMENT: pl-wtm--r-2468_hertz-michal--czesc-wandzie.krn
!!!cenid: 18xx:2389
!!!COM: Hertz, Michał
!!!COM-rismid: pe41023359
!!!CDT: 1844/09/28-~1918
!!!CNT: Polish
!!!OTL: Cześć Wandzie
!!!PDT: 1882
!!!AGN:
!!!SMS-siglum: PL-Wtm
!!!SMS-shelfmark: R 2468
!!!SMS-shelfwork: W
!!!SMS-variant:
!!!SMS-altvar:
!!!NIFC-rismid: 1001082224
!!!URL-scan: http://repozytorium.nifc.pl/skany/pl-wtm-nut--r2468
!!!ONB-nifc:
!!!AIN: 2 empty
!!!key:
**kern	**kern	**dynam	**kern	**text	**text	**dynam
*part2	*part2	*part2	*part1	*part1	*part1	*part1
*staff3	*staff2	*	*staff1	*staff1	*staff1	*
*Iempty	*Iforte	*	*Iempty	*	*	*
*	*I"Fortepian	*	*I"Śpiew	*	*	*
*clefF4	*clefG2	*	*clefG2	*	*	*
*k[b-e-]	*k[b-e-]	*	*k[b-e-]	*	*	*
*B-:	*B-:	*	*B-:	*	*	*
*>[A,B,B,C]	*>[A,B,B,C]	*	*>[A,B,B,C]	*	*	*
*M4/4	*M4/4	*	*M4/4	*	*	*
*met(c)	*met(c)	*	*met(c)	*	*	*
*>A	*>A	*	*>A	*	*	*
8r	8r	f	4r	.	.	.
8A\	8f/ 8e-/	.	.	.	.	.
=1	=1	=1	=1	=1	=1	=1
8B-\	8f/ 8d/	.	1r	.	.	.
8r	8r	.	.	.	.	.
*2\right	*2\right	*	*	*	*	*
2d\ 2B-^\	2b-\ 2f^\	.	.	.	.	.
8B-\L	8dd\L 8f\	.	.	.	.	.
8d\J	8b-\J 8f\	.	.	.	.	.
=2	=2	=2	=2	=2	=2	=2
(>2c\ (2F\	(2ff\ 2a\ [>2f\	.	1r	.	.	.
4A\))	4cc\ 4f\])	.	.	.	.	.
8r	8r	.	.	.	.	.
*clefG2	*	*	*	*	*	*
8a/	8ff\ 8ee-\	p	.	.	.	.
=3	=3	=3	=3	=3	=3	=3
8b-\	8ff\ 8dd\	.	1r	.	.	.
8r	8r	.	.	.	.	.
2dd\ 2b-^\	2bb-\ 2ff^\	.	.	.	.	.
8b-\L	8ddd\L 8ff\	.	.	.	.	.
8dd\J	8bb-\J 8ff\	.	.	.	.	.
=4	=4	=4	=4	=4	=4	=4
*	*	*	*^	*	*	*
(2cc\ (2f\	(2fff\ 2aa\ [2ff\	.	2r	2.ryy	.	.	.
!	!	!	!	!	!	!	!LO:DY:b
4a/))	4ccc\ 4ff\])	.	4r	.	.	.	f
8r	8r	.	8r	8ryy	.	.	.
*clefF4	*	*	*	*	*	*	*
8A\	8f/ 8e-/	p	8f/ 8e-/	8A\	świe-	.	.
!!LO:LB:g=original
=5	=5	=5	=5	=5	=5	=5	=5
8B-\	8f/ 8d/	.	(4f/ (4d/	(4B-\	-tla-	.	.
8r	8r	.	.	.	.	.	.
[4d\	[4b-\ [4f\	.	[4b-/ [<4f/))	[4d\)	.	.	.
8d\L]	8b-\]L 8f\]	.	8b-/] 8f/]	8d\]	.	.	.
8c\	8a\ 8f\ 8e-\	.	8a/	8f\ 8e-\	-nej	.	.
8F\	8ee-\ 8g\ 8c\	.	8ee-/	8g\ 8c\	wan-	.	.
8f\J	8dd\J 8a\ 8f\	.	8dd/	8a\ 8f\	-dzie	.	.
=6	=6	=6	=6	=6	=6	=6	=6
*	*	*	*2\right	*	*	*	*
8B-\	8b-\ 8f\ 8d\	.	2b-/ 2f^/	2d\	cześć!	.	.
8r	8r	.	.	.	.	.	.
4B-\:: 4F\:: 4BB-::\	4bb-\:: 4dd\:: 4b-\:: 4d\:: 4B-::\	.	.	.	.	.	.
8r	8r	.	8r	8ryy	.	.	.
8d\L	8b-\L 8f\	.	8b-/	8f\ 8d\	co	.	.
8c\	8cc\ 8a\ 8f\	.	8cc/	8a\ 8f\	nie-	.	.
8B-\J	8dd\J 8b-\ 8f\	.	8dd/	8b-\ 8f\	-win-	.	.
=7	=7	=7	=7	=7	=7	=7	=7
*	*^	*	*	*	*	*	*
4.G\	4ff/	4.b-\ 4.g\	.	4ff/	4b-\ 4g\	-noś-	.	.
.	[4ee-/	.	.	4ee-/	4b-\ 4g\	-cią,	.	.
8c\	.	8cc\ 8g\	.	.	.	.	.	.
4.c\	8ee-/L]	8a\L 8g\	.	8r	8r	.	.	.
.	8gg/	8b-\	.	8gg/	8ee-\ 8a\	co	.	.
.	8ee-/	8a\ 8g\	.	8ee-/	8a\ 8g\	nie-	.	.
8d\	8dd/J	8b-\J 8f\	.	8dd/	8b-\ 8f\	-win-	.	.
*	*v	*v	*	*	*	*	*	*
=8	=8	=8	=8	=8	=8	=8	=8
4.e-\	(>4.dd/ 4.b-/ 4.g/	.	4.dd/	4.b-\ 4.g\	-noś-	.	.
8G\	8cc/ 8b-/ 8e-/)	.	8cc/	8b-\ 8e-\	-cią	.	.
8F\L	4cc\ 4a\ 4f\	.	4cc/	4a\ 4f\	lśni,	.	.
8En\	.	.	.	.	.	.	.
8E-X\	8r	.	8r	8ryy	.	.	.
8e-\J	8cc\ 8a\ 8f\	.	8cc/	8a\ 8f\	po	.	.
!!LO:LB:g=original
=9	=9	=9	=9	=9	=9	=9	=9
!	!	!	!	!LO:S:s=1:note:problem=note-level slur	!	!	!
8d\	8dd\ 8a\ 8f#X\	.	(4dd/	(<4a\ (4f#X\	wszy-	.	.
8r	8r	.	.	.	.	.	.
[4G\	[4b-\ [4g\ [4d\	.	[4b-/)	[4g\ [4d\))	.	.	.
8G\L]	8b-\]L 8g\] 8d\]	.	8b-/]	8g\] 8d\]	.	.	.
8B-\	8g\ 8d\	.	8g/	8d\ 8B-\	-stkie	.	.
8d\	8b-\ 8f#\ 8d\	.	8b-/	8f#X\ 8d\	wie-	.	.
8D\J	8a\J 8f#\ 8c\	.	8a/	8f#\ 8c\	-ków	.	.
=10	=10	=10	=10	=10	=10	=10	=10
8E-\	8g/ 8B-/	.	2g/ 2B-/	2ryy	dni,	.	.
8r	8r	.	.	.	.	.	.
4E-\:: 4BB-\:: 4EE-::\	4gg\:: 4b-\:: 4g\:: 4B-\:: 4G::\	.	.	.	.	.	.
8r	8r	.	8r	8ryy	.	.	.
8e-\L 8E-\	8cc\L 8g\	.	8cc/	8g\ 8e-\	hołd	.	.
8d\ 8D\	8dd\ 8b-\ 8g\	.	8dd/	8d\	śpiew-	.	.
8c\J 8C\	8ee-\J 8cc\ 8g\	.	8ee-/	8g\ 8c\	-ny	.	.
=11	=11	=11	=11	=11	=11	=11	=11
!	!LO:S:s=2:note:problem=note-level slur	!	!	!	!	!	!
(4d\ (4D\	(4ff\ (>4b-\ (4f\	.	4ff/	4b-\ 4d\	hym-	.	.
4G\))	4b-\) 4g\) 4d\)	.	4b-/	4g\	-nem,	.	.
8r	8r	.	8r	8ryy	.	.	.
8f\L 8F\	8dd\L 8b-\ 8f\	.	8dd/	8b-\ 8f\	hołd	.	.
8e-\ 8E-\	8cc\ 8a\ 8f\	.	8cc/	8f\ 8e-\	spiesz-	.	.
8d\J 8D\	8b-\J 8f\	.	8b-/	8f\ 8d\	-my	.	.
=12	=12	=12	=12	=12	=12	=12	=12
*	*^	*	*	*	*	*	*
!	!	!	!	!	!LO:S:s=1:note:problem=note-level slur	!	!	!
4c\ 4C\	(4.ee-/	4b-\ 4g\	.	(4.ee-/	(<4g\ (4c\	hy-	.	.
4F\	.	4a\ 4f\	.	.	8a\ 8f\))	.	.	.
.	8dd/	.	.	8dd/)	8a\ 8f\	-mnem	.	.
8B-\L 8BB-\	4b-/ 4f/ 4d/)	2ryy	.	4b-/	4d\ 4B-\	nieść	.	.
8f\ 8F\	.	.	.	.	.	.	.	.
8d\ 8D\	4r	.	.	4r	4ryy	.	.	.
8B-\J 8BB-\	.	.	.	.	.	.	.	.
*	*v	*v	*	*	*	*	*	*
!!LO:LB:g=original
=13	=13	=13	=13	=13	=13	=13	=13
4f\ 4F\	4cc\ 4a\ 4f\	.	4cc\ 4a\ 4f\	4ryy	cześć	.	.
8F\L	8a/L 8c/	.	8a/	8a\	nie-	.	.
8A\J	8f/J 8c/	.	8f/	8f\	-win-	.	.
4.B-\	4.dd\ 4.f\	.	4.dd/ 4.f/	4.B-\	-noś-	.	.
8d\	8b-\ 8f\	.	8b-/ 8f/	8d\	-ci	.	.
=14	=14	=14	=14	=14	=14	=14	=14
4.f\ 4.F\	4.cc\ 4.a\ 4.f\	.	2cc\ 2a\ 2f\	2.ryy	cześć!	.	.
16F\LL 16FF\	16ff\LL 16f\	.	.	.	.	.	.
16F\JJ 16FF\	16ff\JJ 16f\	.	.	.	.	.	.
8F\L 8FF\	8ff\L 8f\	.	4r	.	.	.	.
8c\	8cc\	.	.	.	.	.	.
8A\	8a\	.	8r	8ryy	.	.	.
8F\J	8f\J	.	8f/	8f\	Kró-	.	.
=15	=15	=15	=15	=15	=15	=15	=15
4f\ 4F\	4cc\ 4a\ 4f\	.	(4cc/	[<4a\ (4f\	-lo-	.	.
8F\L	8a/L 8c/	.	8a/)	8a\)]	.	.	.
8A\J	8f/J 8c/	.	8f/	8f\	-wej	.	.
4.B-\	4.dd\ 4.f\	.	4.dd/ 4.f/	4.B-\	Wan-	.	.
8d\	8b-\ 8f\	.	8b-/ 8f/	8d\	-dzie	.	.
*	*	*	*v	*v	*	*	*
=16	=16	=16	=16	=16	=16	=16
4.f\ 4.F\	4.cc\ 4.a\ 4.f\	.	2cc\ 2a\ 2f\	cześć!	.	.
16F\LL 16FF\	16ff\LL 16f\	.	.	.	.	.
16F\JJ 16FF\	16ff\JJ 16f\	.	.	.	.	.
8F\L 8FF\	8ff\L	.	4r	.	.	.
8c\	8cc\	.	.	.	.	.
8A\	8a\	.	8r	.	.	.
8A\J 8F\	8f\J	.	8f/ 8e-/ 8A/	świe-	.	.
!!LO:PB:g=original
=17	=17	=17	=17	=17	=17	=17
*	*	*	*^	*	*	*
!	!	!	!LO:S:s=2:note:problem=note-level slur	!	!	!	!
8B-\ 8BB-\	8f/ 8d/	.	(4f/ (>4ūd/	(4B-\	-tla-	.	.
8r	8r	.	.	.	.	.	.
[4d\ [4D\	[4b-/ [4f/	.	[4b-/ [<4f/))	[4d\)	.	.	.
8d\]L 8D\]	8b-/]L 8f/]	.	8b-/] 8f/]	8d\]	.	.	.
(<8a\ 8A\	(8b-/ 8g/	.	8b-/	8a\	-nej	.	.
8g\ 8G\	8ee-/ 8b-/	.	8ee-/ 8b-/	8g\	cno-	.	.
8f\J 8F\	8dd/J 8b-/	.	8dd/ 8b-/	8f\	-cie	.	.
=18	=18	=18	=18	=18	=18	=18	=18
8d\ 8D\)	8ff\ 8b-\)	.	2ff/	2b-\ 2d\	cześć!	.	.
8r	8r	.	.	.	.	.	.
4d\:: 4A\:: 4F\:: 4D::\	4ff\:: 4b-\:: 4f::\	.	.	.	.	.	.
8r	8r	.	8r	8ryy	.	.	.
8c#X\L	8een\L 8b-\	.	8een/	8b-\ 8c#X\	co	.	.
8d\	8ff\ 8b-\	.	8ff/	8b-\ 8d\	nie-	.	.
8B-\J	8ff#X\J 8dd\ 8b-\	.	8ff#X/	8dd\ 8B-\	-win-	.	.
=19	=19	=19	=19	=19	=19	=19	=19
(<4e-\	(4gg\ 4ee-\ (4b-\	.	4gg/	4b-\ 4e-\	-noś-	.	.
4e-\ 4E-\)	8cc\ 8g\))	.	4cc/	4g\ 4e-\	-cią	.	.
.	8r	.	.	.	.	.	.
8r	8r	.	8r	8ryy	.	.	.
8e-\L 8E-\	8cc\L 8g\	.	8cc/	8g\ 8e-\	co	.	.
8d\ 8D\	8bn\ 8g\	.	8bn/	8g\ 8d\	nie-	.	.
8e-\J 8E-\	8cc\J 8g\	.	8cc/	8g\ 8e-\	-win-	.	.
*	*	*	*v	*v	*	*	*
!!LO:LB:g=original
=20	=20	=20	=20	=20	=20	=20
!	!LO:S:s=2:note:problem=note-level slur	!	!LO:S:s=2:note:problem=note-level slur	!	!	!
(2c\ (2C\	[2ee-\ (2b-\ (2g\	.	[2ee-\ (2g\ (2c\	-noś-	.	.
4.F\))	4.ee-\] 4.a\) 4.f\)	.	4.ee-\] 4.a\) 4.f\)	.	.	.
8F\ 8FF\	8dd\ 8b-\ 8f\	.	8dd\ 8a\ 8f\	-cią	.	.
=21	=21	=21	=21	=21	=21	=21
8B-\ 8F\ 8BB-\	8b-\ 8d\	.	4b-\ 4d\	lśni!	.	.
8r	8r	.	.	.	.	.
2d\ 2B-\	2b-\ 2f\	.	4r	.	.	.
.	.	.	2r	.	.	.
8B-\L	8dd\L 8f\	.	.	.	.	.
8d\J	8b-\J 8f\	.	.	.	.	.
=22!|:	=22!|:	=22!|:	=22!|:	=22!|:	=22!|:	=22!|:
*>B	*>B	*	*>B	*	*	*
!	!LO:S:s=2:note:problem=note-level slur	!	!	!	!	!
(2c\ (2F\	(2ff\ (<2a\ 2f\	.	1r	.	.	.
4A\))	4cc\)) 4f\	.	.	.	.	.
8r	8r	.	.	.	.	.
*clefG2	*	*	*	*	*	*
8a/	8ff\ 8ee-\	.	.	.	.	.
=23	=23	=23	=23	=23	=23	=23
8b-\	8ff\ 8dd\	.	1r	.	.	.
8r	8r	.	.	.	.	.
2dd\ 2b-\	2bb-\ 2ff\	.	.	.	.	.
8b-\L	8ddd\L 8ff\	.	.	.	.	.
8dd\J	8bb-\J 8ff\	.	.	.	.	.
!!LO:LB:g=original
=24	=24	=24	=24	=24	=24	=24
*	*	*	*^	*	*	*
(2cc\ (2f\	(2fff\ 2aa\ [2ff\	.	2r	2ryy	.	.	.
8a/))	8ccc\ 8ff\])	.	8r	8ryy	.	.	.
8r	8f/L	.	8f/	8f\	Ja-	Bo	.
8r	8g/ 8en/	.	8g/	8en\	-ko	na-	.
*clefF4	*	*	*	*	*	*	*
8F\	8a/J 8f/ 8e-X/	.	8a/	8f\ 8e-X\	wspa-	-sza	.
=25	=25	=25	=25	=25	=25	=25	=25
(4A\	(4cc\ 4f\ 4e-\	.	4cc/	4f\ 4e-\	-nia-	Wan-	.
4B-\)	4b-\ 4f\ 4d\)	.	4b-/	4f\ 4d\	-łe	-da,	.
8r	8r	.	8r	8ryy	.	.	.
8c\L	8a\L 8f\ 8e-\	.	8a/	8f\ 8e-\	bry-	to	.
8F\	8ee-\: 8a\: 8f\: 8c:\ 8A\:	.	8ee-/	8f\ 8c\	-lan-	he-	.
8f\J	8dd\J 8a\ 8f\	.	8dd/ 8a/	8f\	-ty	-ro-	.
=26	=26	=26	=26	=26	=26	=26	=26
*^	*	*	*	*	*	*	*
8d\ 8B-\	4ryy	8dd\ 8b-\ 8f\	.	2dd/	2b-\ 2f\	ro-	-i-	.
8r	.	8r	.	.	.	.	.	.
4F\ 4BB-\	4B-/	§4bb-:\ 4dd:\ 4b-:\ 4f:\ 4d:\	.	.	.	.	.	.
8r	2ryy	8r	.	8b-/	8f\ 8d\	-sy,	-na,	.
8d\L	.	8b-\L 8f\	.	8b-/	8f\ 8d\	jak	co	.
8c\	.	8cc\ 8a\ 8f\	.	8cc/	8a\ 8f\	la-	dla	.
8B-\J	.	8dd\J 8b-\ 8f\	.	8dd/	8b-\ 8f\	-zur	czci	.
*v	*v	*	*	*	*	*	*	*
!!LO:LB:g=original
=27	=27	=27	=27	=27	=27	=27	=27
*	*^	*	*	*	*	*	*
4.G\	4ff/	4.b-\ 4.g\	.	4ff/	4b-\ 4g\	nie-	lu-	.
.	[4ee-/	.	.	4ee-/	4b-\ 4g\	-ba,	-du,	.
8A\	.	8cc\ 8g\	.	.	.	.	.	.
4.c\	8ee-/L]	8a\L 8g\	.	8r	8ryy	.	.	.
.	8gg/ 8ee-/	8a\	.	8gg/	8ee-\ 8a\	u-	niem-	.
.	8ee-/	8a\ 8g\	.	8ee-/	8a\ 8g\	-ro-	-ca	.
8d\	8dd/J	8b-\J 8f\	.	8dd/	8b-\ 8f\	-kiem	nie	.
*	*v	*v	*	*	*	*	*	*
=28	=28	=28	=28	=28	=28	=28	=28
4.e-\	4.dd\ 4.b-\ 4.g\	.	(4.dd/	4.b-\ 4.f\	nę-	chcia-	.
8G\	8cc\ 8b-\ 8en\	.	8cc/)	8b-\ 8e-\	.	.	.
8F\L	8cc\L 8a\ 8f\	.	8cc/	8a\ 8f\	-ci,	-ła,	.
8En\	8cc\ 8a\ 8f\	.	8cc/	8a\ 8f\	tak	cho-	.
8E-X\	8ff\ 8cc\ 8a\	.	8ff/	8cc\ 8a\	cno-	-ciaż	.
8e-\J	8cc\J 8a\ 8f\	.	8cc/	8a\ 8f\	-ta	ksią-	.
=29	=29	=29	=29	=29	=29	=29	=29
!	!LO:S:s=2:note:problem=note-level slur	!	!	!	!	!	!
(4d\	(4dd\ (4a\ (4f#X\	.	4dd/	4a\ 4f#X\	Wan-	-żę-	.
4G\)	4b-\ 4g\) 4d\))	.	4b-/ 4g/	4d\	-dy	-cia,	.
8r	8rdd	.	8r	2ryy	.	.	.
8B-\L	8g/L 8d/	.	8g/ 8d/ 8B-/	.	z lu-	choć	.
8d\	8b-/ 8f#/ 8d/	.	8b-/ 8f#X/ 8d/	.	-du	go	.
8D\J	8a/J 8f#/ 8c/	.	8a/ 8f#/ 8c/	.	pa-	ko-	.
=30	=30	=30	=30	=30	=30	=30	=30
*	*^	*	*	*	*	*	*
4.E-\	(4a/ (4f#X/	(<4c/	.	4a/ 4f#X/ 4c/	2ryy	-mię-	-cha-	.
.	4g/))	8B-\L)	.	4g/ 4B-/	.	-ci	-ła,	.
8d\ 8D\	.	8gg\J 8ee-\ 8b-\ 8g\	.	.	.	.	.	.
8c\L 8C\	8gg\L 8ee-\ 8cc\ 8g\	2ryy	.	8r	8ryy	.	.	.
8e-\ 8E-\	8cc\ 8g\	.	.	8cc/ 8g/	8e-\	przetr-	niech	.
!	!	!	!	!LO:SIC:v:n=2:s=8b-/	!	!	!	!
8d\ 8D\	8dd\ 8b-\ 8g\	.	.	8dd/ 8a/	8d\	-wa	więc	.
8c\J 8C\	8ee-\J 8cc\ 8g\	.	.	8ee-/ 8g/	8c\	wsze	ją	.
*	*v	*v	*	*	*	*	*	*
!!LO:PB:g=original
=31	=31	=31	=31	=31	=31	=31	=31
!	!LO:S:s=2:note:problem=note-level slur	!	!	!	!	!	!
(4d\ (4D\	(4ff\ (4b-\ (4f\	.	4ff/	4b-\ 4d\	cza-	na-	.
4G\))	4b-\) 4g\) 4d\)	.	4b-/	4g\	-sy	-ród	.
8r	8r	.	8r	8r	.	.	.
8f\L 8F\	8dd\L 8b-\ 8f\	.	8dd/	8b-\ 8g\	i	ze	.
8e-\ 8E-\	8cc\ 8a\ 8f\	.	8cc/	8f\ 8e-\	pnie	czcią	.
8d\J 8D\	8b-\J 8f\	.	8b-/	8f\ 8d\	w nie-	wspo-	.
=32	=32	=32	=32	=32	=32	=32	=32
*	*^	*	*	*	*	*	*
(4c\ (4C\	(4.ee-/	(4b-\ (4g\	.	(4.ee-/	(4g\ (4c\	-bio-	-mi-	.
4F\))	.	4a\ 4f\))	.	.	8a\ 8f\))	.	.	.
.	8dd/	.	.	8dd/)	8a\ 8f\	.	.	.
8B-\L 8BB-\	4b-/ 4f/ 4d/)	2ryy	.	4b-/	4d/	-sy.	-na.	.
8f\ 8F\	.	.	.	.	.	.	.	.
8d\ 8D\	4r	.	.	4r	4ryy	.	.	.
8B-\J 8BB-\	.	.	.	.	.	.	.	.
*	*v	*v	*	*	*	*	*	*
=33	=33	=33	=33	=33	=33	=33	=33
*	*	*	*	*	*	*ij	*
4f\ 4F\	4cc\ 4a\ 4f\	.	4a\	4f\	Cześć	Cześć	.
8F\L	8a/L 8c/	.	8a/	8f\	nie-	nie-	.
8A\J	8f/J 8c/	.	8f/	8d\	-win-	-win-	.
4.B-\	4.dd\ 4.f\	.	4.dd/	4.dd\ 4.f\ 4.B-\	-no-	-no-	.
8d\	8b-\ 8f\	.	8b-/	8f\ 8c\	-ści	-ści	.
=34	=34	=34	=34	=34	=34	=34	=34
4.f\ 4.F\	4.cc\ 4.a\ 4.f\	.	2cc\ 2a\ 2f\	2.ryy	cześć!	cześć!	.
16F\LL 16FF\	16ff\LL 16f\	.	.	.	.	.	.
16F\JJ 16FF\	16ff\JJ 16f\	.	.	.	.	.	.
8F\L 8FF\	8ff\L 8f\	.	4r	.	.	.	.
8c\	8cc\	.	.	.	.	.	.
8A\	8a\	.	8r	8ryy	.	.	.
8F\J	8f\J	.	8f/	8f\	Kró-	Kró-	.
!!LO:LB:g=original
=35	=35	=35	=35	=35	=35	=35	=35
4f\ 4F\	4cc\ 4a\ 4f\	.	(4cc/	(4a\ 4f\	-lo-	-lo-	.
8F\L	8a/L 8f/ 8c/	.	8a/)	8a\)	.	.	.
8A\J	8f/J 8c/	.	8f/	8f\	-wej	-wej	.
4.B-\	4.dd\ 4.f\	.	4.dd/	4.f\ 4.B-\	Wan-	Wan-	.
8d\	8b-\ 8f\	.	8b-/	8f\ 8d\	-dzie	-dzie	.
*	*	*	*v	*v	*	*	*
=36	=36	=36	=36	=36	=36	=36
4.f\ 4.F\	4.cc\ 4.a\ 4.f\	.	2cc\ 2a\ 2f\	cześć!	cześć!	.
16F\LL 16FF\	16ff\LL 16f\	.	.	.	.	.
16F\JJ 16FF\	16ff\JJ 16f\	.	.	.	.	.
8F\L 8FF\	8ff\L 8f\	.	4r	.	.	.
8c\	8cc\	.	.	.	.	.
8A\	8a\	.	8r	.	.	.
8A\J 8F\	8f\J	.	8f/ 8e-/ 8A/	Świe-	Świe-	.
=37	=37	=37	=37	=37	=37	=37
*	*	*	*^	*	*	*
!	!	!	!LO:S:s=2:note:problem=note-level slur	!	!	!	!
8B-\ 8BB-\	8f/ 8d/	.	(4f/ (<4d/ (<4B-/	2ryy	-tla-	-tla-	.
8r	8r	.	.	.	.	.	.
[4d\ [4D\	[4b-\ [4f\	.	[4b-/) [4f/) [<4d/)	.	.	.	.
8d\]L 8D\]	8b-\]L 8f\]	.	8b-/] 8f/] 8d/]	8ryy	.	.	.
8a\ 8A\	8b-\ 8g\	.	8b-/	8a\ 8f\	-nej	-nej	.
8g\ 8G\	8ee-\ 8b-\	.	8ee-/	8b-\ 8g\	cno-	cno-	.
8f\J 8F\	8dd\J 8b-\	.	8dd/ 8b-/	8f\	-cie	-cie	.
=38	=38	=38	=38	=38	=38	=38	=38
8d\ 8D\	8ff\ 8b-\	.	2ff/	2b-\ 2d\	cześć!	cześć!	.
8r	8r	.	.	.	.	.	.
4d\: 4B-\: 4F\: 4D:\	4ff\: 4b-\: 4f:\	.	.	.	.	.	.
8r	8r	.	8r	8ryy	.	.	.
8c#X\L	8een\L 8cc\	.	8een/	8b-\ 8c#X\	co	co	.
8d\	8ff\ 8cc\	.	8ff/ 8b-/	8d\	nie-	nie-	.
8B-\J	8ff#X\J 8dd\ 8b-\	.	8ff#X/	8dd\ 8b-\	-win-	-win-	.
!!LO:LB:g=original
=39	=39	=39	=39	=39	=39	=39	=39
!	!LO:S:s=2:note:problem=note-level slur	!	!	!	!	!	!
4e-\ 4E-\	(4gg\ (4ee-\ (4b-\	.	4gg/ 4b-/ 4e-/	2ryy	-noś-	-noś-	.
4e-\ 4E-\	4cc\) 4g\))	.	4cc\ 4g\ 4e-\	.	-cią,	-cią,	.
8r	8r	.	8r	8ryy	.	.	.
8e-\L 8E-\	8cc\L 8g\	.	8cc/	8g\ 8e-\	co	co	.
8d\ 8D\	8bn\ 8g\	.	8bn/ 8g/	8d\	nie-	nie-	.
8e-\J 8E-\	8cc\J 8g\	.	8cc/	8g\ 8e-\	-win-	-win-	.
=40	=40	=40	=40	=40	=40	=40	=40
*	*^	*	*	*	*	*	*
!	!	!	!	!	!LO:S:s=1:note:problem=note-level slur	!	!	!
(2c\ (2C\	[2ee-\ 2b-\	2g\	.	[2ee-/ 2g/	(<2g\ 2c\	-no-	-no-	.
4.F\))	4.ee-/]	4.a\ 4.f\	.	4.ee-/]	4.a\ 4.f\)	.	.	.
8F\ 8FF\	8dd/	8a\ 8f\	.	8dd/	8a\ 8f\	-ścią	-ścią	.
*	*v	*v	*	*	*	*	*	*
=41	=41	=41	=41	=41	=41	=41	=41
8F\ 8BB-\	8b-\ 8d\	.	4dd/ 4d/	4d\	lśni!	lśni!	.
8r	8r	.	.	.	.	.	.
2d\ 2B-\	2b-\ 2f\	sf	4r	2.ryy	.	.	.
.	.	.	2r	.	.	.	.
8B-\L	8dd\L 8f\	.	.	.	.	.	.
8d\J	8b-\J 8f\	.	.	.	.	.	.
*	*	*	*v	*v	*	*	*
=42:|!	=42:|!	=42:|!	=42:|!	=42:|!	=42:|!	=42:|!
*>C	*>C	*	*>C	*	*	*
!	!LO:S:s=2:note:problem=note-level slur	!	!	!	!	!
(2c\ (2F\	(2ff\ (>2a\ ([2f\	.	1ryy	.	.	.
4A\))	4cc\)) 4f\])	.	.	.	.	.
8r	8r	.	.	.	.	.
*clefG2	*	*	*	*	*	*
8a/	8ff\ 8ee-\	.	.	.	.	.
!!LO:LB:g=original
=43	=43	=43	=43	=43	=43	=43
8b-\	8ff\ 8dd\	.	1ryy	.	.	.
8r	8r	.	.	.	.	.
2dd\ 2b-\	2bb-\ 2ff\	sf	.	.	.	.
8b-\L	8ddd\L 8ff\	.	.	.	.	.
8dd\J	8bb-\J 8ff\	.	.	.	.	.
=44	=44	=44	=44	=44	=44	=44
(2cc\ (2f\	(2fff\ 2aa\ 2ff\	.	1ryy	.	.	.
4a/))	4ccc\ 4ff\)	.	.	.	.	.
*clefF4	*	*	*	*	*	*
8A\L	8cc\L 8f\	.	.	.	.	.
8A\J	8cc#X\J 8f\	.	.	.	.	.
=45	=45	=45	=45	=45	=45	=45
8B-\	8dd\ 8f\	.	1ryy	.	.	.
8r	8r	.	.	.	.	.
[4d\	[4a/ [4f#X/	.	.	.	.	.
8d\L]	8a\]L 8f#\]	.	.	.	.	.
8D\	8a\ 8f#\ 8d\	.	.	.	.	.
8G\	8b-\ 8g\ 8d\	.	.	.	.	.
8B-\J	8g\J 8d\	.	.	.	.	.
=46	=46	=46	=46	=46	=46	=46
8A\ 8F\	(2cc\ [<2fn\ (2e-\	.	1ryy	.	.	.
8r	.	.	.	.	.	.
*tremolo	*	*	*	*	*	*
(32FF\LLL	.	.	.	.	.	.
32F\	.	.	.	.	.	.
32FF\	.	.	.	.	.	.
32F\	.	.	.	.	.	.
32FF\	.	.	.	.	.	.
32F\	.	.	.	.	.	.
32FF\	.	.	.	.	.	.
32F\JJJ	.	.	.	.	.	.
*Xtremolo	*	*	*	*	*	*
4F\ 4BB-\)	8b-\ 8f\] 8d\))	.	.	.	.	.
.	8r	.	.	.	.	.
4r	4r	.	.	.	.	.
==	==	==	==	==	==	==
*-	*-	*-	*-	*-	*-	*-
!!!system-decoration: (s1{s2,s3})
!!!ENC: Tomasz Grochalski
!!!END: 2021-06-10
!!!RDF**kern: > = above
!!!RDF**kern: < = below
!!!EED: Andrzej Borzym
!!!EEV: 2021-10-09
